packages/kaspersky-hexa-ui-icons/src/iconsSVGs/16/Quarantine.svg

<svg width="16" height="16" viewBox="0 0 16 16" fill="none" xmlns="http://www.w3.org/2000/svg">
<path d="M10.1989 8.10876C10.0925 8.1088 10.0065 8.024 9.99335 7.91849C9.92135 7.34161 9.6027 6.84341 9.14721 6.52524C9.05757 6.46263 9.02376 6.34225 9.07844 6.24755L10.1182 4.44667C10.1725 4.35269 10.293 4.32019 10.3845 4.37851C11.6377 5.17713 12.3609 6.51512 12.4255 7.91119C12.4305 8.0197 12.3421 8.10795 12.2335 8.10799L10.1989 8.10876Z" fill="black"/>
<path d="M3.57439 7.92123C3.56983 8.02943 3.65814 8.11714 3.76644 8.11718L5.79997 8.11795C5.90669 8.11799 5.99289 8.03258 6.00562 7.92663C6.07526 7.34734 6.39396 6.84687 6.85033 6.52714C6.93977 6.46448 6.97343 6.34427 6.91884 6.24969L5.87969 4.44932C5.82547 4.35538 5.70512 4.32276 5.61366 4.38106C5.03418 4.75036 4.53213 5.26123 4.16483 5.89688C3.79561 6.53715 3.60346 7.23107 3.57439 7.92123Z" fill="black"/>
<path d="M6.79198 8.16854C6.79198 7.50073 7.33302 6.9606 7.99991 6.9606C8.66772 6.9606 9.20877 7.50073 9.20877 8.16854C9.20877 8.83635 8.66772 9.37556 7.99991 9.37556C7.33302 9.37556 6.79198 8.83635 6.79198 8.16854Z" fill="black"/>
<path d="M10.1088 11.7843C10.1632 11.8785 10.1308 11.9993 10.0342 12.0491C8.79386 12.6886 7.27721 12.7293 5.96037 12.044C5.86409 11.9939 5.83197 11.8732 5.88625 11.7792L6.87618 10.065C6.93093 9.97023 7.05229 9.9394 7.15115 9.98645C7.40912 10.1092 7.69515 10.1812 7.99991 10.1812C8.30302 10.1812 8.58741 10.1099 8.84427 9.98847C8.94308 9.94175 9.0641 9.97274 9.1187 10.0674L10.1088 11.7843Z" fill="black"/>
<path fill-rule="evenodd" clip-rule="evenodd" d="M15 8C15 11.866 11.866 15 8 15C4.13401 15 1 11.866 1 8C1 4.13401 4.13401 1 8 1C11.866 1 15 4.13401 15 8ZM13.7 8C13.7 11.148 11.148 13.7 8 13.7C4.85198 13.7 2.3 11.148 2.3 8C2.3 4.85198 4.85198 2.3 8 2.3C11.148 2.3 13.7 4.85198 13.7 8Z" fill="black"/>
</svg>

<svg xmlns="http://www.w3.org/2000/svg" width="16" height="16" fill="none" viewBox="0 0 16 16"><path fill="#000" d="M10.199 8.109c-.106 0-.192-.085-.206-.19-.072-.577-.391-1.075-.846-1.393-.09-.063-.123-.183-.069-.278l1.04-1.801c.054-.094.175-.126.266-.068 1.253.799 1.976 2.137 2.041 3.533.005.109-.083.197-.192.197zm-6.625-.188c-.005.108.084.196.192.196l2.034.001c.107 0 .193-.085.206-.191.07-.579.388-1.08.845-1.399.09-.063.123-.183.069-.277L5.88 4.449c-.054-.094-.175-.126-.266-.068a4.406 4.406 0 0 0-1.449 1.516c-.369.64-.561 1.334-.59 2.024m3.217.248c0-.668.541-1.208 1.208-1.208.668 0 1.209.54 1.209 1.208S8.668 9.376 8 9.376c-.667 0-1.208-.539-1.208-1.207m3.317 3.615c.054.094.022.215-.075.265-1.24.64-2.757.68-4.074-.005-.096-.05-.128-.171-.074-.265l.99-1.714c.055-.095.176-.126.275-.078.258.123.544.195.849.195.303 0 .588-.071.844-.193.099-.047.22-.016.274.079z"/><path fill="#000" fill-rule="evenodd" d="M15 8c0 3.866-3.134 7-7 7s-7-3.134-7-7 3.134-7 7-7 7 3.134 7 7m-1.3 0c0 3.148-2.552 5.7-5.7 5.7S2.3 11.148 2.3 8 4.852 2.3 8 2.3s5.7 2.552 5.7 5.7" clip-rule="evenodd"/></svg>
